X: 19
T: Pull The Knife And Stick It Again
Z: Boris Rorsvort
S: https://thesession.org/tunes/398#setting51745
R: jig
M: 6/8
L: 1/8
K: Edor
|:~E3 GFE|DBE DBD|~E3 GFE|ABG AFD|
~E3 GFE|DBE DEF|GFE FED|BAF ~E3:|
|:edB BAF|EDB D2f| edB BAF|ABc d2 f|
edB BAF|EDB DEF|GFE FED |BAF ~E3 :|

